X: 3
T: Quarryman's Jig
R: jig 32
C: Charlie Sherrit
Z: John Chambers
M: 6/8
L: 1/8
K: D
FG |\
"D"Aff f2e | "A"e2f "D"d2c | "G"BGB dcB | "D"A3 zFG |\
"A"Aee e2f | "A"gfe c2B | "A"AGA BAG | "D"F3 "A"zFG |
"D"Aff fee | "A"edd "D"dc=c | "G"BGB dcB | "D"A3 zFG |\
"A"Aee e2f | "A"gfe  c2B | "A7"AGA B2c | "D"d3 |] "D7"dc=c |
"G"BdB G2B | dBd edB | "D"AdA F2A | dAd fed |\
"A"cgg gee | ecc c2B | "D"Aff fee | "A"edd "D7"d2=c |
"G"BdB G2B | dBd edB | "D"AdA F2A | dAd fed |\
"A"cgg gee | ecc c=cB | "A7"AGA B2c | "D"d3 z |]
